.config/awesome/icons-18px/repeat.svg

<?xml version="1.0" encoding="UTF-8" standalone="no"?>
<svg
   xmlns:dc="http://purl.org/dc/elements/1.1/"
   xmlns:cc="http://creativecommons.org/ns#"
   xmlns:rdf="http://www.w3.org/1999/02/22-rdf-syntax-ns#"
   xmlns:svg="http://www.w3.org/2000/svg"
   xmlns="http://www.w3.org/2000/svg"
   version="1.1"
   id="svg2"
   viewBox="0 0 12 18"
   height="18"
   width="12">
  <defs
     id="defs4" />
  <metadata
     id="metadata7">
    <rdf:RDF>
      <cc:Work
         rdf:about="">
        <dc:format>image/svg+xml</dc:format>
        <dc:type
           rdf:resource="http://purl.org/dc/dcmitype/StillImage" />
        <dc:title />
      </cc:Work>
    </rdf:RDF>
  </metadata>
  <g
     transform="translate(0,-1034.3622)"
     id="layer1">
    <path
       transform="translate(0,1034.3622)"
       id="path26909"
       d="M 3,5 3,6 8,6 8,5 Z M 8,6 8,7 9,7 9,6 Z m 1,1 0,3 -1,0 0,1 1,0 0,1 1,0 0,-1 1,0 0,-1 -1,0 0,-3 z m 2,3 1,0 0,-1 -1,0 z M 8,10 8,9 7,9 7,10 Z M 3,6 2,6 2,7 3,7 Z m -1,1 -1,0 0,5 1,0 z m 0,5 0,1 1,0 0,-1 z m 1,1 0,1 5,0 0,-1 z"
       style="color:#000000;clip-rule:nonzero;display:inline;overflow:visible;visibility:visible;opacity:1;isolation:auto;mix-blend-mode:normal;color-interpolation:sRGB;color-interpolation-filters:linearRGB;solid-color:#000000;solid-opacity:1;fill:#eee8d5;fill-opacity:1;fill-rule:evenodd;stroke:none;stroke-width:0.354;stroke-linecap:butt;stroke-linejoin:round;stroke-miterlimit:4;stroke-dasharray:none;stroke-dashoffset:0;stroke-opacity:1;marker:none;color-rendering:auto;image-rendering:auto;shape-rendering:auto;text-rendering:auto;enable-background:accumulate" />
  </g>
</svg>

<?xml version="1.0" encoding="UTF-8" standalone="no"?>
<!-- Created with Inkscape (http://www.inkscape.org/) -->

<svg
   xmlns:dc="http://purl.org/dc/elements/1.1/"
   xmlns:cc="http://creativecommons.org/ns#"
   xmlns:rdf="http://www.w3.org/1999/02/22-rdf-syntax-ns#"
   xmlns:svg="http://www.w3.org/2000/svg"
   xmlns="http://www.w3.org/2000/svg"
   xmlns:sodipodi="http://sodipodi.sourceforge.net/DTD/sodipodi-0.dtd"
   xmlns:inkscape="http://www.inkscape.org/namespaces/inkscape"
   width="12"
   height="18"
   viewBox="0 0 12 18"
   id="svg2"
   version="1.1"
   inkscape:version="0.91 r13725"
   sodipodi:docname="repeat.svg"
   inkscape:export-filename="/home/rohieb/.config/awesome/icons-18px/repeat.png"
   inkscape:export-xdpi="90"
   inkscape:export-ydpi="90">
  <defs
     id="defs4" />
  <sodipodi:namedview
     id="base"
     pagecolor="#ffffff"
     bordercolor="#666666"
     borderopacity="1.0"
     inkscape:pageopacity="0.0"
     inkscape:pageshadow="2"
     inkscape:zoom="0.35"
     inkscape:cx="375"
     inkscape:cy="520"
     inkscape:document-units="px"
     inkscape:current-layer="layer1"
     showgrid="true"
     units="px"
     inkscape:object-nodes="true">
    <inkscape:grid
       type="xygrid"
       id="grid8068"
       units="px"
       spacingx="1"
       spacingy="1"
       empspacing="4"
       originx="1"
       originy="1"
       visible="true"
       enabled="true" />
  </sodipodi:namedview>
  <metadata
     id="metadata7">
    <rdf:RDF>
      <cc:Work
         rdf:about="">
        <dc:format>image/svg+xml</dc:format>
        <dc:type
           rdf:resource="http://purl.org/dc/dcmitype/StillImage" />
        <dc:title></dc:title>
      </cc:Work>
    </rdf:RDF>
  </metadata>
  <g
     inkscape:label="Layer 1"
     inkscape:groupmode="layer"
     id="layer1"
     transform="translate(0,-1034.3622)">
    <path
       style="color:#000000;clip-rule:nonzero;display:inline;overflow:visible;visibility:visible;opacity:1;isolation:auto;mix-blend-mode:normal;color-interpolation:sRGB;color-interpolation-filters:linearRGB;solid-color:#000000;solid-opacity:1;fill:#eee8d5;fill-opacity:1;fill-rule:evenodd;stroke:none;stroke-width:0.354;stroke-linecap:butt;stroke-linejoin:round;stroke-miterlimit:4;stroke-dasharray:none;stroke-dashoffset:0;stroke-opacity:1;marker:none;color-rendering:auto;image-rendering:auto;shape-rendering:auto;text-rendering:auto;enable-background:accumulate"
       d="M 3 5 L 3 6 L 4 6 L 5 6 L 6 6 L 7 6 L 8 6 L 8 5 L 7 5 L 6 5 L 5 5 L 4 5 L 3 5 z M 8 6 L 8 7 L 9 7 L 9 6 L 8 6 z M 9 7 L 9 8 L 9 9 L 9 10 L 8 10 L 8 11 L 9 11 L 9 12 L 10 12 L 10 11 L 11 11 L 11 10 L 10 10 L 10 9 L 10 8 L 10 7 L 9 7 z M 11 10 L 12 10 L 12 9 L 11 9 L 11 10 z M 8 10 L 8 9 L 7 9 L 7 10 L 8 10 z M 3 6 L 2 6 L 2 7 L 3 7 L 3 6 z M 2 7 L 1 7 L 1 8 L 1 9 L 1 10 L 1 11 L 1 12 L 2 12 L 2 11 L 2 10 L 2 9 L 2 8 L 2 7 z M 2 12 L 2 13 L 3 13 L 3 12 L 2 12 z M 3 13 L 3 14 L 4 14 L 5 14 L 6 14 L 7 14 L 8 14 L 8 13 L 7 13 L 6 13 L 5 13 L 4 13 L 3 13 z "
       id="path26909"
       transform="translate(0,1034.3622)" />
  </g>
</svg>
